X: 37310
T: Skye Barbecue
R: reel
M: 4/4
K: Amajor
c4 cdcB|Acfc acfc|gfef gabg|agfa gfeB|
c4 cdcB|Acfc acfc|agfa gfeg|1 f2fe fgfe:|2 f4 z2 f>g||
|:a2ec Acec|dcBA GBEG|Acec acec|dcBc defg|
a2ec Acec|dcBA GBEG|Acec acec|dcBd cAA2:|

